src/images/portfolio-resinate/logo-color.svg

<svg height="112" viewBox="0 0 511 112" width="511" xmlns="http://www.w3.org/2000/svg"><g fill="none" fill-rule="evenodd" transform=""><g transform="translate(399.6)"><path d="m.00125988 105.346033c-.00083955-.111756-.00125988-.704662-.00125988-.816567 0-32.0547228 34.4889262-53.229466 77.0331727-53.229466 2.2460229 0 4.4695951.0724232 6.6668273.2143391-38.8113139 2.5462597-63.9632769 22.6526566-63.9632769 53.0151269 0 .111905.0003416.704811.0010244.816567-1.4725236 4.169311-4.8618477 6.253967-10.1679722 6.253967-5.30612453 0-8.49562967-2.084656-9.56851542-6.253967z" fill="#83bc39"/><path d="m5.43930876 68.2580002c12.85825044-42.0508593 51.57667894-68.2580002 97.34327424-68.2580002 2.970547 0 5.9114.13549018 8.817417.4009883-33.6528799 3.12301947-59.5408632 20.3662645-73.3807721 47.8792095-12.4483142 5.3698302-23.5151393 12.0836081-32.77991914 19.9778024z" fill="#8e42ff"/></g><path d="m25.9559055 56.7c3.4220644 0 6.1015651.5207905 8.0385827 1.562387 1.9370175 1.0415965 2.9055118 2.3435726 2.9055118 3.9059674 0 .4556985-.0322831.7811925-.0968504.9764919-.5811053 2.083193-1.8724309 3.124774-3.8740157 3.124774-.3228363 0-.8070834-.0650989-1.4527559-.1952984-2.5826901-.4556985-4.6810943-.6835443-6.2952756-.6835443-4.6488422 0-8.3936866 1.0741303-11.2346457 3.2224231-2.8409591 2.1482929-4.26141733 5.0451898-4.26141733 8.6907776v33.3960217c-2.15222559 0-3.76639882 0-4.84251968 0-1.03307604 0-2.64724926 0-4.84251969 0v-48.5316456c0-1.5623948.41968084-2.7667227 1.25905512-3.6130199.83937427-.8462971 2.03385052-1.2694394 3.58346457-1.2694394 3.22836259 0 4.84251968 1.6274702 4.84251968 4.8824593v1.8553346c1.93701753-2.2784924 4.32597003-4.0687096 7.16692913-5.3707053 2.8409591-1.3019956 5.8755744-1.9529837 9.103937-1.9529837zm60.7683923 27.072973c0 1.2324386-.4235127 2.25405-1.2705508 3.0648648-.8470382.8108149-1.9221089 1.2162163-3.2252444 1.2162163h-37.1391776c.7167246 4.5405632 2.7854212 8.2053914 6.2061521 10.9945945 3.4207308 2.7892034 7.606991 4.1837834 12.5589061 4.1837834.5682984 0 8.383504-.001886 23.4456168-.00566v8.373228c-15.0070524 0-22.8222581 0-23.4456168 0-5.3428558 0-10.1318071-1.15134-14.3669977-3.454054-4.2351905-2.302714-7.5418474-5.497277-9.9200698-9.5837838-2.3782223-4.086507-3.5673157-8.7242984-3.5673157-13.9135136 0-5.1892151 1.1239376-9.8432226 3.3718464-13.9621621s5.3753872-7.3297182 9.382529-9.6324324c4.0071419-2.3027143 8.5517589-3.4540541 13.6339876-3.4540541 5.0170719 0 9.3499326 1.1026917 12.9987121 3.3081081 3.6487796 2.2054164 6.450479 5.2864667 8.4051823 9.2432433 1.9547034 3.9567765 2.9320404 8.4972716 2.9320404 13.6216216zm-23.6999735-18.072973c4.2811025 0 7.7513381 1.3061094 10.4108108 3.9183673 2.6594728 2.612258 4.2810782 6.1061006 4.8648649 10.4816327h-32.4c.7783823-4.3755321 2.6432285-7.8693747 5.5945946-10.4816327 2.9513661-2.6122579 6.7945709-3.9183673 11.5297297-3.9183673zm50.5670007-8.1c4.178892 0 7.923765.6810743 11.234733 2.0432432 3.310968 1.362169 5.930772 3.2432313 7.859491 5.6432433.835778 1.037843 1.253661 2.0756705 1.253661 3.1135135 0 1.1027082-.546462 2.1081036-1.639403 3.0162162-.707197.5189215-1.607253.7783784-2.700193.7783784-1.671557 0-3.182364-.6162101-4.532468-1.8486487-1.607265-1.4918993-3.310942-2.5459428-5.111079-3.1621621-1.800138-.6162193-3.985987-.9243243-6.557613-.9243243-2.957369 0-5.384304.5026976-7.280878 1.5081081-1.896573 1.0054104-2.844846 2.4162071-2.844846 4.2324324 0 1.2973038.321448 2.3837794.964355 3.2594595.642906.87568 1.86441 1.6864827 3.664548 2.4324324 1.800137.7459497 4.403869 1.4756721 7.811273 2.1891892 7.007679 1.4270341 11.974056 3.4053927 14.89928 5.9351351s4.387814 5.8053853 4.387814 9.827027c0 2.9837987-.803621 5.6918798-2.410887 8.1243248-1.607266 2.432444-3.969911 4.345939-7.088007 5.74054-3.118096 1.394602-6.862969 2.091892-11.234732 2.091892-1.209291 0-10.198082 0-26.966374 0v-8.373228c17.017763-.255686 25.877974-.383529 26.580632-.383529 3.664566 0 6.509384-.61621 8.534539-1.848648 2.025155-1.232439 3.037717-2.8864765 3.037717-4.9621626 0-2.0108208-.99649-3.6810744-2.989499-5.0108108-1.99301-1.3297364-5.368218-2.4486441-10.125725-3.3567567-12.3438017-2.400012-18.5156101-7.5242851-18.5156101-15.372973 0-3.1783943.9322002-5.8702593 2.7966286-8.0756757 1.8644285-2.2054164 4.3074355-3.8594539 7.3290955-4.9621621 3.02166-1.1027083 6.236144-1.6540541 9.643547-1.6540541zm31.308675 5.0347349c0-1.5137187.469113-2.7312568 1.407353-3.6526508s2.11911-1.3820841 3.542647-1.3820841c1.488243 0 2.68529.4606901 3.591176 1.3820841.905887.921394 1.358824 2.1389321 1.358824 3.6526508v48.9652651c-2.307838 0-3.957838 0-4.95 0-.949024 0-2.599024 0-4.95 0zm4.5-26.6347349c1.71819 0 3.197721.6204483 4.438636 1.8613636 1.240916 1.2409153 1.861364 2.720446 1.861364 4.4386364s-.620448 3.1977211-1.861364 4.4386364c-1.240915 1.2409153-2.720446 1.8613636-4.438636 1.8613636s-3.197721-.6204483-4.438636-1.8613636c-1.240916-1.2409153-1.861364-2.720446-1.861364-4.4386364s.620448-3.1977211 1.861364-4.4386364c1.240915-1.2409153 2.720446-1.8613636 4.438636-1.8613636zm45.145614 21.6c4.438619 0 8.426883.9764821 11.964912 2.9294756 3.53803 1.9529935 6.304084 4.8010663 8.298246 8.5443038s2.991228 8.2513299 2.991228 13.5244123v29.0018083c-2.337227 0-3.977578 0-4.921053 0-.943474 0-2.583825 0-4.921052 0v-29.0018083c0-5.2730824-1.399109-9.2603843-4.197369-11.9620253-2.798259-2.701641-6.513134-4.0524413-11.144737-4.0524413-2.701767 0-5.162269.5533399-7.381578 1.6600362-2.21931 1.1066963-3.956135 2.6039689-5.210527 4.4918626s-1.881579 4.0036049-1.881579 6.3471971v32.517179c-2.294342 0-3.934693 0-4.921052 0-.943475 0-2.583826 0-4.921053 0v-48.5316456c0-1.497295.46637-2.7016229 1.399123-3.6130199.932753-.9113969 2.106718-1.3670886 3.52193-1.3670886 1.479539 0 2.669586.4556917 3.570175 1.3670886.900589.911397 1.350877 2.1157249 1.350877 3.6130199v1.0741411c2.05849-2.0831931 4.50291-3.6943885 7.333334-4.8336347 2.830423-1.1392462 5.853785-1.7088608 9.070175-1.7088608zm59.752571 0c4.94703 0 9.428201 1.1837719 13.443648 3.5513514 4.015447 2.3675794 7.195633 5.6107902 9.540653 9.7297297 2.345021 4.1189395 3.517514 8.7080828 3.517514 13.7675675v26.6594594c-2.334297 0-3.972591 0-4.914882 0s-2.580586 0-4.914882 0v-8.562162c-2.24865 2.789203-4.979113 4.962154-8.19147 6.518919-3.212357 1.556764-6.681651 2.335135-10.407986 2.335135-4.625794 0-8.817857-1.167556-12.576315-3.502703s-6.713783-5.562141-8.866062-9.6810808c-2.152279-4.1189395-3.228403-8.7080828-3.228403-13.7675676 0-5.0594847 1.156431-9.648628 3.469328-13.7675675 2.312898-4.1189395 5.509145-7.3621503 9.588839-9.7297297 4.079694-2.3675795 8.592988-3.5513514 13.540018-3.5513514zm.449984 45c3.211284 0 6.117452-.803592 8.718592-2.4108 2.601139-1.607208 4.640274-3.8047861 6.117464-6.5928 1.477191-2.7880139 2.215775-5.9203826 2.215775-9.3972s-.738584-6.6255859-2.215775-9.4464c-1.47719-2.8208141-3.516325-5.034792-6.117464-6.642-2.60114-1.607208-5.507308-2.4108-8.718592-2.4108s-6.117452.803592-8.718592 2.4108c-2.601139 1.607208-4.65633 3.8211859-6.165633 6.642-1.509304 2.8208141-2.263944 5.9695826-2.263944 9.4464s.75464 6.6091861 2.263944 9.3972c1.509303 2.7880139 3.564494 4.985592 6.165633 6.5928 2.60114 1.607208 5.507308 2.4108 8.718592 2.4108zm59.713392-1.636477c1.154919 0 2.133377.454364 2.935404 1.363107.802027.908742 1.203035 2.077108 1.203035 3.505131 0 1.428024-.52933 2.59639-1.588006 3.505132-1.058676.908743-2.422101 1.363107-4.090318 1.363107h-1.73237c-3.143946 0-6.01516-.827592-8.613728-2.482802-2.598568-1.655209-4.635686-3.910804-6.111416-6.766851-1.47573-2.8560478-2.213584-6.0690531-2.213584-9.6391126v-24.0490985h-4.427168c-1.347405 0-2.438146-.3894552-3.272254-1.1683772-.834108-.7789221-1.251156-1.7525601-1.251156-2.9209432 0-1.2982034.417048-2.3367506 1.251156-3.1156726.834108-.7789221 1.924849-1.1683773 3.272254-1.1683773h4.427168v-14.020527c0-1.4280238.449128-2.5963894 1.347399-3.5051318.89827-.9087424 2.053172-1.3631068 3.46474-1.3631068s2.566469.4543644 3.46474 1.3631068c.89827.9087424 1.347398 2.077108 1.347398 3.5051318v14.020527h8.180636c1.347406 0 2.438146.3894552 3.272255 1.1683773.834108.778922 1.251156 1.8174692 1.251156 3.1156726 0 1.1683831-.417048 2.1420211-1.251156 2.9209432-.834109.778922-1.924849 1.1683772-3.272255 1.1683772h-8.180636v24.0490985c0 2.5964069.705774 4.770865 2.117342 6.5234397 1.411567 1.7525749 3.14392 2.6288489 5.197109 2.6288489zm59.938439-17.19055c0 1.2324386-.420805 2.25405-1.262428 3.0648648-.841622.8108149-1.90982 1.2162163-3.204624 1.2162163h-36.901734c.712142 4.5405632 2.767613 8.2053914 6.166474 10.9945945 3.398861 2.7892034 7.558357 4.1837834 12.478613 4.1837834 1.942206 0 3.965307-.356753 6.069364-1.07027s3.835831-1.589184 5.195375-2.6270269c.906363-.713517 1.974561-1.0702702 3.204625-1.0702702s2.201152.324321 2.913295.9729729c1.165323.9729782 1.747976 2.0756692 1.747976 3.3081082 0 1.167573-.517913 2.140537-1.553757 2.918919-2.201167 1.75136-4.9364 3.178373-8.20578 4.281081-3.269381 1.102708-6.393049 1.654054-9.371098 1.654054-5.308697 0-10.067031-1.15134-14.275145-3.454054-4.208113-2.302714-7.49363-5.497277-9.856647-9.5837838-2.363018-4.086507-3.544509-8.7242984-3.544509-13.9135136 0-5.1892151 1.116752-9.8432226 3.350289-13.9621621s5.341021-7.3297182 9.322543-9.6324324c3.981523-2.3027143 8.497085-3.4540541 13.546821-3.4540541 4.984996 0 9.290155 1.1026917 12.915607 3.3081081s6.409239 5.2864667 8.351445 9.2432433c1.942206 3.9567765 2.913295 8.4972716 2.913295 13.6216216zm-24.275676-18.072973c-4.735158 0-8.578363 1.3061094-11.529729 3.9183673-2.951367 2.612258-4.816213 6.1061006-5.594595 10.4816327h32.4c-.583787-4.3755321-2.205392-7.8693747-4.864865-10.4816327-2.659473-2.6122579-6.129708-3.9183673-10.410811-3.9183673z" fill="#83bc39"/></g></svg>

<?xml version="1.0" encoding="UTF-8"?>
<svg width="511px" height="112px" viewBox="0 0 511 112" version="1.1" xmlns="http://www.w3.org/2000/svg" xmlns:xlink="http://www.w3.org/1999/xlink">
    <!-- Generator: Sketch 50.2 (55047) - http://www.bohemiancoding.com/sketch -->
    <title>logo-color</title>
    <desc>Created with Sketch.</desc>
    <defs></defs>
    <g id="Brand-Page" stroke="none" stroke-width="1" fill="none" fill-rule="evenodd">
        <g id="Resinate-Brand-Page" transform="translate(-844.000000, -4642.000000)">
            <g id="Final-Logo" transform="translate(-1.000000, 4172.000000)">
                <g id="Resinate-Logo-R4" transform="translate(845.000000, 470.000000)">
                    <g>
                        <g id="Resinate-Logo-R4-Leaf" transform="translate(399.600000, 0.000000)">
                            <g id="Combined-Shape">
                                <path d="M0.00125987979,105.346033 C0.000420334825,105.234277 0,104.641371 0,104.529466 C0,72.4747432 34.4889262,51.3 77.0331727,51.3 C79.2791956,51.3 81.5027678,51.3724232 83.7,51.5143391 C44.8886861,54.0605988 19.7367231,74.1669957 19.7367231,104.529466 C19.7367231,104.641371 19.7370647,105.234277 19.7377475,105.346033 C18.2652239,109.515344 14.8758998,111.6 9.5697753,111.6 C4.26365077,111.6 1.07414563,109.515344 0.00125987979,105.346033 Z" fill="#83BC39"></path>
                                <path d="M5.43930876,68.2580002 C18.2975592,26.2071409 57.0159877,0 102.782583,0 C105.75313,0 108.693983,0.13549018 111.6,0.400988301 C77.9471201,3.52400777 52.0591368,20.7672528 38.2192279,48.2801978 C25.7709137,53.650028 14.7040886,60.3638059 5.43930876,68.2580002 Z" fill="#8E42FF"></path>
                            </g>
                        </g>
                        <path d="M25.9559055,56.7 C29.3779699,56.7 32.0574706,57.2207905 33.9944882,58.262387 C35.9315057,59.3039835 36.9,60.6059596 36.9,62.1683544 C36.9,62.6240529 36.8677169,62.9495469 36.8031496,63.1448463 C36.2220443,65.2280393 34.9307187,66.2696203 32.9291339,66.2696203 C32.6062976,66.2696203 32.1220505,66.2045214 31.476378,66.0743219 C28.8936879,65.6186234 26.7952837,65.3907776 25.1811024,65.3907776 C20.5322602,65.3907776 16.7874158,66.4649079 13.9464567,68.6132007 C11.1054976,70.7614936 9.68503937,73.6583905 9.68503937,77.3039783 L9.68503937,110.7 C7.53281378,110.7 5.91864055,110.7 4.84251969,110.7 C3.80944365,110.7 2.19527043,110.7 0,110.7 L0,62.1683544 C0,60.6059596 0.419680843,59.4016317 1.25905512,58.5553345 C2.09842939,57.7090374 3.29290564,57.2858951 4.84251969,57.2858951 C8.07088228,57.2858951 9.68503937,58.9133653 9.68503937,62.1683544 L9.68503937,64.023689 C11.6220569,61.7451966 14.0110094,59.9549794 16.8519685,58.6529837 C19.6929276,57.3509881 22.7275429,56.7 25.9559055,56.7 Z M86.7242978,83.772973 C86.7242978,85.0054116 86.3007851,86.027023 85.453747,86.8378378 C84.6067088,87.6486527 83.5316381,88.0540541 82.2285026,88.0540541 L45.089325,88.0540541 C45.8060496,92.5946173 47.8747462,96.2594455 51.2954771,99.0486486 C54.7162079,101.837852 58.9024681,103.232432 63.8543832,103.232432 C64.4226816,103.232432 72.2378872,103.230546 87.3,103.226772 L87.3,111.6 C72.2929476,111.6 64.4777419,111.6 63.8543832,111.6 C58.5115274,111.6 53.7225761,110.44866 49.4873855,108.145946 C45.252195,105.843232 41.9455381,102.648669 39.5673157,98.5621622 C37.1890934,94.4756552 36,89.8378638 36,84.6486486 C36,79.4594335 37.1239376,74.805426 39.3718464,70.6864865 C41.6197552,66.567547 44.7472336,63.3567683 48.7543754,61.0540541 C52.7615173,58.7513398 57.3061343,57.6 62.388363,57.6 C67.4054349,57.6 71.7382956,58.7026917 75.3870751,60.9081081 C79.0358547,63.1135245 81.8375541,66.1945748 83.7922574,70.1513514 C85.7469608,74.1081279 86.7242978,78.648623 86.7242978,83.772973 Z M63.0243243,65.7 C67.3054268,65.7 70.7756624,67.0061094 73.4351351,69.6183673 C76.0946079,72.2306253 77.7162133,75.7244679 78.3,80.1 L45.9,80.1 C46.6783823,75.7244679 48.5432285,72.2306253 51.4945946,69.6183673 C54.4459607,67.0061094 58.2891655,65.7 63.0243243,65.7 Z M113.591325,57.6 C117.770217,57.6 121.51509,58.2810743 124.826058,59.6432432 C128.137026,61.0054122 130.75683,62.8864745 132.685549,65.2864865 C133.521327,66.3243295 133.93921,67.362157 133.93921,68.4 C133.93921,69.5027082 133.392748,70.5081036 132.299807,71.4162162 C131.59261,71.9351377 130.692554,72.1945946 129.599614,72.1945946 C127.928057,72.1945946 126.41725,71.5783845 125.067146,70.3459459 C123.459881,68.8540466 121.756204,67.8000031 119.956067,67.1837838 C118.155929,66.5675645 115.97008,66.2594595 113.398454,66.2594595 C110.441085,66.2594595 108.01415,66.7621571 106.117576,67.7675676 C104.221003,68.772978 103.27273,70.1837747 103.27273,72 C103.27273,73.2973038 103.594178,74.3837794 104.237085,75.2594595 C104.879991,76.1351395 106.101495,76.9459422 107.901633,77.6918919 C109.70177,78.4378416 112.305502,79.167564 115.712906,79.8810811 C122.720585,81.3081152 127.686962,83.2864738 130.612186,85.8162162 C133.53741,88.3459586 135,91.6216015 135,95.6432432 C135,98.6270419 134.196379,101.335123 132.589113,103.767568 C130.981847,106.200012 128.619202,108.113507 125.501106,109.508108 C122.38301,110.90271 118.638137,111.6 114.266374,111.6 C113.057083,111.6 104.068292,111.6 87.3,111.6 L87.3,103.226772 C104.317763,102.971086 113.177974,102.843243 113.880632,102.843243 C117.545198,102.843243 120.390016,102.227033 122.415171,100.994595 C124.440326,99.762156 125.452888,98.1081185 125.452888,96.0324324 C125.452888,94.0216116 124.456398,92.351358 122.463389,91.0216216 C120.470379,89.6918852 117.095171,88.5729775 112.337664,87.6648649 C99.9938623,85.2648529 93.8220539,80.1405798 93.8220539,72.2918919 C93.8220539,69.1134976 94.7542541,66.4216326 96.6186825,64.2162162 C98.483111,62.0107998 100.926118,60.3567623 103.947778,59.2540541 C106.969438,58.1513458 110.183922,57.6 113.591325,57.6 Z M144.9,62.6347349 C144.9,61.1210162 145.369113,59.9034781 146.307353,58.9820841 C147.245593,58.0606901 148.426463,57.6 149.85,57.6 C151.338243,57.6 152.53529,58.0606901 153.441176,58.9820841 C154.347063,59.9034781 154.8,61.1210162 154.8,62.6347349 L154.8,111.6 C152.492162,111.6 150.842162,111.6 149.85,111.6 C148.900976,111.6 147.250976,111.6 144.9,111.6 L144.9,62.6347349 Z M149.4,36 C151.11819,36 152.597721,36.6204483 153.838636,37.8613636 C155.079552,39.1022789 155.7,40.5818096 155.7,42.3 C155.7,44.0181904 155.079552,45.4977211 153.838636,46.7386364 C152.597721,47.9795517 151.11819,48.6 149.4,48.6 C147.68181,48.6 146.202279,47.9795517 144.961364,46.7386364 C143.720448,45.4977211 143.1,44.0181904 143.1,42.3 C143.1,40.5818096 143.720448,39.1022789 144.961364,37.8613636 C146.202279,36.6204483 147.68181,36 149.4,36 Z M194.545614,57.6 C198.984233,57.6 202.972497,58.5764821 206.510526,60.5294756 C210.048556,62.4824691 212.81461,65.3305419 214.808772,69.0737794 C216.802934,72.8170169 217.8,77.3251093 217.8,82.5981917 L217.8,111.6 C215.462773,111.6 213.822422,111.6 212.878947,111.6 C211.935473,111.6 210.295122,111.6 207.957895,111.6 L207.957895,82.5981917 C207.957895,77.3251093 206.558786,73.3378074 203.760526,70.6361664 C200.962267,67.9345254 197.247392,66.5837251 192.615789,66.5837251 C189.914022,66.5837251 187.45352,67.137065 185.234211,68.2437613 C183.014901,69.3504576 181.278076,70.8477302 180.023684,72.7356239 C178.769292,74.6235176 178.142105,76.7392288 178.142105,79.082821 L178.142105,111.6 C175.847763,111.6 174.207412,111.6 173.221053,111.6 C172.277578,111.6 170.637227,111.6 168.3,111.6 L168.3,63.0683544 C168.3,61.5710594 168.76637,60.3667315 169.699123,59.4553345 C170.631876,58.5439376 171.805841,58.0882459 173.221053,58.0882459 C174.700592,58.0882459 175.890639,58.5439376 176.791228,59.4553345 C177.691817,60.3667315 178.142105,61.5710594 178.142105,63.0683544 L178.142105,64.1424955 C180.200595,62.0593024 182.645015,60.448107 185.475439,59.3088608 C188.305862,58.1696146 191.329224,57.6 194.545614,57.6 Z M254.298185,57.6 C259.245215,57.6 263.726386,58.7837719 267.741833,61.1513514 C271.75728,63.5189308 274.937466,66.7621416 277.282486,70.8810811 C279.627507,75.0000206 280.8,79.5891639 280.8,84.6486486 L280.8,111.308108 C278.465703,111.308108 276.827409,111.308108 275.885118,111.308108 C274.942827,111.308108 273.304532,111.308108 270.970236,111.308108 L270.970236,102.745946 C268.721586,105.535149 265.991123,107.7081 262.778766,109.264865 C259.566409,110.821629 256.097115,111.6 252.37078,111.6 C247.744986,111.6 243.552923,110.432444 239.794465,108.097297 C236.036007,105.76215 233.080682,102.535156 230.928403,98.4162162 C228.776124,94.2972767 227.7,89.7081334 227.7,84.6486486 C227.7,79.5891639 228.856431,75.0000206 231.169328,70.8810811 C233.482226,66.7621416 236.678473,63.5189308 240.758167,61.1513514 C244.837861,58.7837719 249.351155,57.6 254.298185,57.6 Z M254.748169,102.6 C257.959453,102.6 260.865621,101.796408 263.466761,100.1892 C266.0679,98.581992 268.107035,96.3844139 269.584225,93.5964 C271.061416,90.8083861 271.8,87.6760174 271.8,84.1992 C271.8,80.7223826 271.061416,77.5736141 269.584225,74.7528 C268.107035,71.9319859 266.0679,69.718008 263.466761,68.1108 C260.865621,66.503592 257.959453,65.7 254.748169,65.7 C251.536885,65.7 248.630717,66.503592 246.029577,68.1108 C243.428438,69.718008 241.373247,71.9319859 239.863944,74.7528 C238.35464,77.5736141 237.6,80.7223826 237.6,84.1992 C237.6,87.6760174 238.35464,90.8083861 239.863944,93.5964 C241.373247,96.3844139 243.428438,98.581992 246.029577,100.1892 C248.630717,101.796408 251.536885,102.6 254.748169,102.6 Z M314.461561,100.963523 C315.61648,100.963523 316.594938,101.417887 317.396965,102.32663 C318.198992,103.235372 318.6,104.403738 318.6,105.831761 C318.6,107.259785 318.07067,108.428151 317.011994,109.336893 C315.953318,110.245636 314.589893,110.7 312.921676,110.7 L311.189306,110.7 C308.04536,110.7 305.174146,109.872408 302.575578,108.217198 C299.97701,106.561989 297.939892,104.306394 296.464162,101.450347 C294.988432,98.5942992 294.250578,95.3812939 294.250578,91.8112344 L294.250578,67.7621359 L289.82341,67.7621359 C288.476005,67.7621359 287.385264,67.3726807 286.551156,66.5937587 C285.717048,65.8148366 285.3,64.8411986 285.3,63.6728155 C285.3,62.3746121 285.717048,61.3360649 286.551156,60.5571429 C287.385264,59.7782208 288.476005,59.3887656 289.82341,59.3887656 L294.250578,59.3887656 L294.250578,45.3682386 C294.250578,43.9402148 294.699706,42.7718492 295.597977,41.8631068 C296.496247,40.9543644 297.651149,40.5 299.062717,40.5 C300.474285,40.5 301.629186,40.9543644 302.527457,41.8631068 C303.425727,42.7718492 303.874855,43.9402148 303.874855,45.3682386 L303.874855,59.3887656 L312.055491,59.3887656 C313.402897,59.3887656 314.493637,59.7782208 315.327746,60.5571429 C316.161854,61.3360649 316.578902,62.3746121 316.578902,63.6728155 C316.578902,64.8411986 316.161854,65.8148366 315.327746,66.5937587 C314.493637,67.3726807 313.402897,67.7621359 312.055491,67.7621359 L303.874855,67.7621359 L303.874855,91.8112344 C303.874855,94.4076413 304.580629,96.5820994 305.992197,98.3346741 C307.403764,100.087249 309.136117,100.963523 311.189306,100.963523 L314.461561,100.963523 Z M374.4,83.772973 C374.4,85.0054116 373.979195,86.027023 373.137572,86.8378378 C372.29595,87.6486527 371.227752,88.0540541 369.932948,88.0540541 L333.031214,88.0540541 C333.743356,92.5946173 335.798827,96.2594455 339.197688,99.0486486 C342.596549,101.837852 346.756045,103.232432 351.676301,103.232432 C353.618507,103.232432 355.641608,102.875679 357.745665,102.162162 C359.849722,101.448645 361.581496,100.572978 362.94104,99.5351351 C363.847403,98.8216181 364.915601,98.4648649 366.145665,98.4648649 C367.375729,98.4648649 368.346817,98.7891859 369.05896,99.4378378 C370.224283,100.410816 370.806936,101.513507 370.806936,102.745946 C370.806936,103.913519 370.289023,104.886483 369.253179,105.664865 C367.052012,107.416225 364.316779,108.843238 361.047399,109.945946 C357.778018,111.048654 354.65435,111.6 351.676301,111.6 C346.367604,111.6 341.60927,110.44866 337.401156,108.145946 C333.193043,105.843232 329.907526,102.648669 327.544509,98.5621622 C325.181491,94.4756552 324,89.8378638 324,84.6486486 C324,79.4594335 325.116752,74.805426 327.350289,70.6864865 C329.583826,66.567547 332.69131,63.3567683 336.672832,61.0540541 C340.654355,58.7513398 345.169917,57.6 350.219653,57.6 C355.204649,57.6 359.509808,58.7026917 363.13526,60.9081081 C366.760712,63.1135245 369.544499,66.1945748 371.486705,70.1513514 C373.428911,74.1081279 374.4,78.648623 374.4,83.772973 Z M350.124324,65.7 C345.389166,65.7 341.545961,67.0061094 338.594595,69.6183673 C335.643228,72.2306253 333.778382,75.7244679 333,80.1 L365.4,80.1 C364.816213,75.7244679 363.194608,72.2306253 360.535135,69.6183673 C357.875662,67.0061094 354.405427,65.7 350.124324,65.7 Z" id="resinate" fill="#83BC39"></path>
                    </g>
                </g>
            </g>
        </g>
    </g>
</svg>
